v/0.4.11/design-resources/icons/wf_icons/notification-cheerleader.svg

<?xml version="1.0" encoding="utf-8"?>
<!-- Generated by IcoMoon.io -->
<!DOCTYPE svg PUBLIC "-//W3C//DTD SVG 1.1//EN" "http://www.w3.org/Graphics/SVG/1.1/DTD/svg11.dtd">
<svg version="1.1" xmlns="http://www.w3.org/2000/svg" xmlns:xlink="http://www.w3.org/1999/xlink" width="512" height="512" viewBox="0 0 512 512">
<g>
</g>
	<path d="M64 192h-64v160h64v-32l64.009 18.289c-0.002 0.242-0.009 0.484-0.009 0.729v44.982c0 17.602 14.399 32 32 32h64c17.6 0 32-14.398 32-32v-9.143l160 45.715v-297.142l-352 100.57v-32zM160 347.43l63.928 18.265v18.305h-63.928v-36.57zM448 114.286v315.429l64 18.285v-352z" fill="#595959" />
</svg>

<svg xmlns="http://www.w3.org/2000/svg" width="512" height="512" viewBox="0 0 512 512"><path stroke="#449FDB" d="M0 0"/><path d="M64 192H0v160h64v-32l64.01 18.29c-.003.24-.01.483-.01.728V384c0 17.602 14.4 32 32 32h64c17.6 0 32-14.398 32-32v-9.143l160 45.715V123.43L64 224v-32zm96 155.43l63.928 18.265V384H160v-36.57zm288-233.144v315.43L512 448V96z" fill="#595959"/></svg>
